X: 139
T:Muiñeira de Cabanas
M:6/8
L:1/8
Q:200
C:Trad.
R:Muiñeira
K:CMin
G3 | A3 G3| C6- | C6- | C3 c2=B |: GAG FDF | EDC/"F."G/ C=B,C | DEF GAB
|"~"A2G c2=B |
GAG FDF | EDC/"F."G/ C=B,C | DEF {C}FED |1 {B,}C3 c2=B :|2 |: {B,}C2 G C
DE | C>GC {D}C=B,C|  D>"F."cD {C}DEF | G2E F2D | EDC/"F."G/ CDE | C>GC {
D}C=B,C | D>"F."cD {C}DEF |GAG FED :| 
K:C
{B,}C Z2 EFG/"F."c/ |: GEC AFA |GEC EDC | B,DF AFA | GEC EFG/"F."c/ | GE
C
 AFA | GEC EDC | B,AG FED |1{B,}C3 EFG/"F."c/ :|2 {B,}C3 ||

